src/assets/advantages/glasses-icon.svg

<svg width="60" height="60" viewBox="0 0 60 60" fill="none" xmlns="http://www.w3.org/2000/svg">
<path d="M48.5383 45.1812C43.4125 46.8895 37.9483 43.7126 36.8989 38.4158L32.374 15.5514L43.6721 11.7881L53.7853 32.792C56.1295 37.6575 53.664 43.4758 48.5383 45.1841V45.1812Z" stroke="#F2C247" stroke-linecap="round" stroke-linejoin="round"/>
<path d="M44.9639 55.1106L57.1941 51.106" stroke="#F2C247" stroke-linecap="round" stroke-linejoin="round"/>
<path d="M51.079 52.5624L48.561 45.2812" stroke="#F2C247" stroke-linecap="round" stroke-linejoin="round"/>
<path d="M44.7842 30.3551C45.6782 30.3551 46.4029 29.6216 46.4029 28.7169C46.4029 27.8121 45.6782 27.0786 44.7842 27.0786C43.8902 27.0786 43.1655 27.8121 43.1655 28.7169C43.1655 29.6216 43.8902 30.3551 44.7842 30.3551Z" fill="#F2C247"/>
<path d="M41.5469 35.0875C42.4409 35.0875 43.1656 34.3541 43.1656 33.4493C43.1656 32.5445 42.4409 31.811 41.5469 31.811C40.6529 31.811 39.9282 32.5445 39.9282 33.4493C39.9282 34.3541 40.6529 35.0875 41.5469 35.0875Z" fill="#F2C247"/>
<path d="M48.3814 36.5441C49.2754 36.5441 50.0001 35.8106 50.0001 34.9058C50.0001 34.001 49.2754 33.2676 48.3814 33.2676C47.4874 33.2676 46.7627 34.001 46.7627 34.9058C46.7627 35.8106 47.4874 36.5441 48.3814 36.5441Z" fill="#F2C247"/>
<path d="M11.4344 45.1812C16.4775 46.8895 21.8536 43.7126 22.8861 38.4158L27.338 15.5514L16.2221 11.7881L6.27203 32.7892C3.9656 37.6547 6.39137 43.473 11.4344 45.1812Z" stroke="#F2C247" stroke-linecap="round" stroke-linejoin="round"/>
<path d="M15.1081 55.1106L2.87793 51.106" stroke="#F2C247" stroke-linecap="round" stroke-linejoin="round"/>
<path d="M8.99268 52.5624L11.5107 45.2812" stroke="#F2C247" stroke-linecap="round" stroke-linejoin="round"/>
<path d="M16.7266 30.3551C17.6206 30.3551 18.3453 29.6216 18.3453 28.7169C18.3453 27.8121 17.6206 27.0786 16.7266 27.0786C15.8326 27.0786 15.1079 27.8121 15.1079 28.7169C15.1079 29.6216 15.8326 30.3551 16.7266 30.3551Z" fill="#F2C247"/>
<path d="M18.1656 36.1798C19.0596 36.1798 19.7843 35.4463 19.7843 34.5416C19.7843 33.6368 19.0596 32.9033 18.1656 32.9033C17.2716 32.9033 16.5469 33.6368 16.5469 34.5416C16.5469 35.4463 17.2716 36.1798 18.1656 36.1798Z" fill="#F2C247"/>
<path d="M11.3311 37.2721C12.2251 37.2721 12.9498 36.5386 12.9498 35.6339C12.9498 34.7291 12.2251 33.9956 11.3311 33.9956C10.4371 33.9956 9.7124 34.7291 9.7124 35.6339C9.7124 36.5386 10.4371 37.2721 11.3311 37.2721Z" fill="#F2C247"/>
<path d="M15.8271 22.71H26.2588" stroke="#F2C247" stroke-miterlimit="10" stroke-linecap="round"/>
<path d="M38.1294 22.71H48.561" stroke="#F2C247" stroke-miterlimit="10" stroke-linecap="round"/>
<path d="M23.3813 6.32715L25.5396 9.9677" stroke="#F2C247" stroke-linecap="round" stroke-linejoin="round"/>
<path d="M36.6905 6.32715L34.5322 9.9677" stroke="#F2C247" stroke-linecap="round" stroke-linejoin="round"/>
<path d="M30.2158 4.50684V8.51145" stroke="#F2C247" stroke-linecap="round" stroke-linejoin="round"/>
</svg>

<svg xmlns="http://www.w3.org/2000/svg" width="60" height="60" fill="none" viewBox="0 0 60 60">
    <path stroke="#F2C247" stroke-linecap="round" stroke-linejoin="round" d="M48.538 45.181c-5.125 1.709-10.59-1.468-11.64-6.765L32.375 15.55l11.298-3.763 10.113 21.004c2.345 4.865-.121 10.684-5.247 12.392v-.003ZM44.964 55.11l12.23-4.004M51.079 52.562l-2.518-7.28"/>
    <path fill="#F2C247" d="M44.784 30.355c.894 0 1.619-.733 1.619-1.638 0-.905-.725-1.638-1.619-1.638s-1.618.733-1.618 1.638c0 .905.724 1.638 1.618 1.638ZM41.547 35.087c.894 0 1.619-.733 1.619-1.638 0-.904-.725-1.638-1.62-1.638-.893 0-1.618.733-1.618 1.638 0 .905.725 1.639 1.619 1.639ZM48.381 36.544c.894 0 1.62-.733 1.62-1.638 0-.905-.726-1.638-1.62-1.638-.894 0-1.618.733-1.618 1.638 0 .905.724 1.638 1.618 1.638Z"/>
    <path stroke="#F2C247" stroke-linecap="round" stroke-linejoin="round" d="M11.434 45.181c5.043 1.709 10.42-1.468 11.452-6.765l4.452-22.865-11.116-3.763-9.95 21.001c-2.306 4.866.12 10.684 5.162 12.392ZM15.108 55.11l-12.23-4.004M8.993 52.562l2.518-7.28"/>
    <path fill="#F2C247" d="M16.727 30.355c.894 0 1.618-.733 1.618-1.638 0-.905-.724-1.638-1.618-1.638-.894 0-1.62.733-1.62 1.638 0 .905.726 1.638 1.62 1.638ZM18.166 36.18c.894 0 1.618-.734 1.618-1.638 0-.905-.724-1.639-1.618-1.639-.894 0-1.62.734-1.62 1.639 0 .904.726 1.638 1.62 1.638ZM11.331 37.272c.894 0 1.619-.733 1.619-1.638 0-.905-.725-1.638-1.619-1.638s-1.619.733-1.619 1.638c0 .905.725 1.638 1.62 1.638Z"/>
    <path stroke="#F2C247" stroke-linecap="round" stroke-miterlimit="10" d="M15.827 22.71H26.26M38.13 22.71H48.56"/>
    <path stroke="#F2C247" stroke-linecap="round" stroke-linejoin="round" d="m23.381 6.327 2.159 3.64M36.69 6.327l-2.158 3.64M30.216 4.507V8.51"/>
</svg>
